X:3602
T:Carolan's Air (Am)
T:Carolan's Welcome(Am)
R:Waltz
C:Turlough O'Carolan (1670-1738)
O:Ireland
Z:Paul Hardy's Possible Tunebook 2015 (see www.paulhardy.net). Creative Commons cc by-nc-sa licenced.
M:3/4
L:1/8
Q:1/4=80
K:Am
c3/2B/|"Am"A2 c3/2d/ e2|A2 c3/2d/ e2|"G"d3/2e/ dc BA|"Em"(3GAB G2 E2|"Am"c3 B A2|"G"d3 c B2|"Am"ce "Em"E2 G2|"Am"A4 c3/2B/||
"Am"A2 c3/2d/ e2|A2 c3/2d/ e2|"G"d3/2e/ dc BA|"Em"(3GAB G2 E2|"C"g3 f e2|"F"a3 "G"g ed|"Am"ce"Em"dc Bc|"Am"A4 A2||
"Am"e2 a3/2b/ c'2|e2 a3/2b/ c'2|"F"c'bag "G"ab|"C"c'2 e2 e2|"Dm"f2 af ed|"C"e2 ge dc|"Dm"d2 "Am"e2 "Em"g2|"Am"a6||
"F"ageg a2|"C"gede g2|edcd ec|"G"d2 B2 G2|"Am"c3 B A2|"G"d3 c B2|"Am"ce "Em"E2 G2|"Am"A4|]

